storage/app/icons/phosphoricons/duotone/webcam-duotone.svg

<svg xmlns="http://www.w3.org/2000/svg" fill="currentColor" viewBox="0 0 256 256"><path d="M128 32a72 72 0 1 0 72 72 72 72 0 0 0-72-72m0 104a32 32 0 1 1 32-32 32 32 0 0 1-32 32" opacity=".2"/><path d="M168 104a40 40 0 1 0-40 40 40 40 0 0 0 40-40m-64 0a24 24 0 1 1 24 24 24 24 0 0 1-24-24m120 96h-88v-16.4a80 80 0 1 0-16 0V200H32a8 8 0 0 0 0 16h192a8 8 0 0 0 0-16M64 104a64 64 0 1 1 64 64 64.07 64.07 0 0 1-64-64"/></svg>

<svg xmlns="http://www.w3.org/2000/svg" viewBox="0 0 256 256" fill="currentColor"><path d="M128,32a72,72,0,1,0,72,72A72,72,0,0,0,128,32Zm0,104a32,32,0,1,1,32-32A32,32,0,0,1,128,136Z" opacity="0.2"/><path d="M168,104a40,40,0,1,0-40,40A40,40,0,0,0,168,104Zm-64,0a24,24,0,1,1,24,24A24,24,0,0,1,104,104Zm120,96H136V183.6a80,80,0,1,0-16,0V200H32a8,8,0,0,0,0,16H224a8,8,0,0,0,0-16ZM64,104a64,64,0,1,1,64,64A64.07,64.07,0,0,1,64,104Z"/></svg>
